svg/misc/tables-o.svg

<svg width="512" height="512" viewBox="0 0 512 512" version="1.1" xmlns="http://www.w3.org/2000/svg"><path fill="currentColor" d="M216,316l-120,-60l0,120c0,22.091 -17.909,40 -40,40c-22.091,0 -40,-17.909 -40,-40l0,-160l-16,-8l0,-48l256,-128l256,128l0,48l-16,8l0,160c0,22.091 -17.909,40 -40,40c-22.091,0 -40,-17.909 -40,-40l0,-120l-120,60l0,156c0,22.091 -17.909,40 -40,40c-22.091,0 -40,-17.909 -40,-40l0,-156Zm48,16l-8,4l-8,-4l0,140c0,4.418 3.582,8 8,8c4.418,0 8,-3.582 8,-8l0,-140Zm184,-92l0,136c0,4.418 3.582,8 8,8c4.418,0 8,-3.582 8,-8l0,-144l-16,8Zm-400,-8l0,144c0,4.418 3.582,8 8,8c4.418,0 8,-3.582 8,-8l0,-136l-16,-8Zm208,-164.223l-194.446,97.223l192.02,91.072c0.803,-0.048 1.611,-0.072 2.426,-0.072c0.815,0 1.623,0.024 2.426,0.072l192.02,-91.072l-194.446,-97.223Z"></path></svg>

<svg width="512" height="512" viewBox="0 0 512 512" fill="none" xmlns="http://www.w3.org/2000/svg">
<path fill-rule="evenodd" clip-rule="evenodd" d="M216 316L96 256V376C96 398.091 78.0914 416 56 416C33.9086 416 16 398.091 16 376V216L0 208V160L256 32L512 160V208L496 216V376C496 398.091 478.091 416 456 416C433.909 416 416 398.091 416 376V256L296 316V472C296 494.091 278.091 512 256 512C233.909 512 216 494.091 216 472V316ZM256 67.7771L61.5542 165L253.574 256.072C254.377 256.024 255.185 256 256 256C256.815 256 257.623 256.024 258.426 256.072L450.446 165L256 67.7771ZM264 332V472C264 476.418 260.418 480 256 480C251.582 480 248 476.418 248 472V332L256 336L264 332ZM448 240V376C448 380.418 451.582 384 456 384C460.418 384 464 380.418 464 376V232L448 240ZM48 232V376C48 380.418 51.5817 384 56 384C60.4183 384 64 380.418 64 376V240L48 232Z" fill="black"/>
</svg>
